X:1
T:Title
%%score { 1 | 2 }
L:1/8
M:6/8
K:Bb
V:1 treble nm="Grand Piano"
V:2 bass 
V:1
 z3 z2[Q:1/4=90] [DF] | [DF][B,D][DF] [DB][Ec][Fd] | [Gc][GB][EG] [DF]2 [DF] | %3
 [DF][B,D][DF] [DB][Ec][Fd] | d3 c2 F | [DF][B,D][DF] [DB][Ec][Fd] | [Gc][GB][EG] [DF]2 [DF] | %7
 GcB AGA |[M:5/8] c3 [DB]2 |[M:1/8] [DF] |[M:3/4] [Fd][Fd] [Fd]c BG | [DF]3 [B,D]2 [DF] | %12
 [Fd][Fd] [Fd][=Ed] [Ec][EG] | d3 c2 e | dd c B2 F/F/ | GG G [Ge]2 G | FD FB cd | %17
[M:5/8] c3 [DB]2 |] %18
V:2
 z3 z2 [B,,B,] | [B,,B,][B,,F,][B,,B,] [B,,B,][B,,B,][B,,B,] | %2
 [E,B,][E,B,][E,B,] [B,,B,]2 [B,,B,] | [B,,B,][B,,F,][B,,B,] [B,,B,][B,,B,][B,,B,] | %4
 [F,B,F]3 [F,A,F]2 [F,A,E] | [B,,B,][B,,F,][B,,B,] [B,,B,][B,,B,][B,,B,] | %6
 [E,B,][E,B,][E,B,] [B,,B,]2 [B,,B,] | [E,B,E][E,G,E][E,G,E] [F,CE][F,B,E][F,CE] | %8
[M:5/8] [F,A,E]3 [B,,B,]2 |[M:1/8] [B,,B,] |[M:3/4] [B,,B,][B,,B,] [B,,B,][E,G,E] [E,G,E][E,B,E] | %11
 [B,,B,]3 [B,,F,]2 [B,,B,] | [B,,B,][B,,B,] [B,,B,][C,G,] [C,G,][C,B,] | %13
 [F,B,F]3 [F,A,F]2 [F,A,F] | [B,F][B,F][K:bass] [F,A,E] [G,B,D]2 [D,B,D]/[D,B,D]/ | %15
 [E,B,E][E,B,E] [E,B,E] [E,B,]2 [E,B,E] | [F,B,D][F,B,] [F,B,D][F,B,D] [F,A,E][F,B,F] | %17
[M:5/8] [F,A,E]3 [B,,B,]2 |] %18

